icons/Yaru/scalable/apps/org.gnome.Software-symbolic.svg

<?xml version="1.0" encoding="UTF-8" standalone="no"?>
<svg
   version="1.1"
   viewBox="0 0 16 16"
   id="svg1"
   xmlns="http://www.w3.org/2000/svg"
   xmlns:svg="http://www.w3.org/2000/svg">
  <defs
     id="defs1">
    <linearGradient
       id="c"
       gradientUnits="userSpaceOnUse"
       x1="68.84919"
       x2="95.257637"
       y1="84"
       y2="84"
       gradientTransform="matrix(1.9230769,0,0,1.9230769,32.769657,32.923074)">
      <stop
         offset="0"
         stop-color="#33d1c6"
         id="stop12" />
      <stop
         offset="1"
         stop-color="#1c25d8"
         id="stop14" />
    </linearGradient>
    <linearGradient
       id="b"
       gradientTransform="matrix(0,1.9230769,-1.9230769,0,309.69274,-28.615387)"
       gradientUnits="userSpaceOnUse"
       x1="72"
       x2="96"
       y1="68"
       y2="68">
      <stop
         offset="0"
         stop-color="#404ce6"
         id="stop7" />
      <stop
         offset="1"
         stop-color="#c061cb"
         id="stop9-6" />
    </linearGradient>
    <linearGradient
       id="a"
       gradientUnits="userSpaceOnUse"
       x1="36"
       x2="60"
       y1="68"
       y2="68"
       gradientTransform="matrix(1.9230769,0,0,1.9230769,32.769657,32.923074)">
      <stop
         offset="0"
         stop-color="#ed336c"
         id="stop2" />
      <stop
         offset="1"
         stop-color="#ffa348"
         id="stop4" />
    </linearGradient>
  </defs>
  <path
     d="M 5.5359579,0 C 4.8041909,0 4.2226869,0.0171594 3.7273645,0.1015625 3.2320419,0.1859656 2.8021425,0.34911919 2.4754114,0.66015625 1.8219492,1.2822304 1.7229881,2.2280646 1.6179895,3.7148438 L 1.0183801,12.214844 c -0.053411,0.756304 -0.052035,1.363335 0.046875,1.878906 0.09891,0.515571 0.3159062,0.957005 0.6738282,1.263672 C 2.4549271,15.970755 3.4728138,16 4.9363489,16 h 6.1601561 c 1.463471,0 2.446787,-0.02955 3.134766,-0.646484 0.343989,-0.30847 0.545037,-0.741744 0.652344,-1.248047 0.107307,-0.506304 0.136691,-1.105225 0.132812,-1.857422 v -0.01563 L 14.414865,3.7128906 v -0.00195 C 14.306515,2.3197784 14.20224,1.3803347 13.565255,0.74023437 12.928271,0.10013409 11.97177,0 10.496896,0 Z m 0,1 h 4.9609381 c 1.417246,0 2.06356,0.1500034 2.359375,0.4472656 0.295815,0.2972622 0.454756,0.9835029 0.560547,2.3417969 l 0.597656,8.4804685 c 0.003,0.711242 -0.02976,1.25324 -0.109375,1.628907 -0.08039,0.379282 -0.190719,0.573506 -0.341797,0.708984 C 13.261146,14.878377 12.525155,15 11.096505,15 H 4.9363489 C 3.508484,15 2.7120525,14.874041 2.3894739,14.597656 2.2281846,14.459464 2.118532,14.273629 2.047677,13.904297 1.976822,13.534965 1.9660232,12.998877 2.016427,12.285156 L 2.6160364,3.7851563 C 2.7186678,2.3318954 2.8837192,1.6524065 3.1648645,1.3847656 3.3054372,1.2509452 3.5110174,1.1533781 3.8953333,1.0878906 4.2796489,1.0224031 4.8220259,1 5.5359579,1 Z"
     style="opacity:1;fill:#808080;fill-opacity:1"
     id="path1" />
  <path
     style="display:inline;fill:none;fill-opacity:1;stroke:#808080;stroke-width:1;stroke-linecap:round;stroke-linejoin:round;stroke-dasharray:none;stroke-opacity:1;enable-background:new"
     d="m 5.431161,2.5242 c 0,0 -0.31612,2.9758 2.52866,2.9758 2.844858,0 2.528718,-2.9758 2.528718,-2.9758"
     id="path14-9-4-2" />
  <g
     id="g1"
     transform="translate(-0.36606901,-0.14053809)">
    <circle
       style="display:inline;fill:#808080;fill-opacity:1;stroke:none;stroke-width:0.0136218;stroke-opacity:1;enable-background:new"
       id="path1770-7-6-0-5-5"
       cx="3.7192752"
       cy="11.819795"
       r="1"
       transform="rotate(-25)" />
    <circle
       style="display:inline;fill:#808080;fill-opacity:1;stroke:none;stroke-width:0.0136218;stroke-opacity:1;enable-background:new"
       id="path1770-7-6-0-5-6-4"
       cx="4.2640357"
       cy="15.383955"
       r="1"
       transform="rotate(-25)" />
    <circle
       style="display:inline;fill:#808080;fill-opacity:1;stroke:none;stroke-width:0.0136218;stroke-opacity:1;enable-background:new"
       id="path1770-7-6-0-5-4-7"
       cx="0.63880479"
       cy="13.693481"
       r="1"
       transform="rotate(-25)" />
  </g>
</svg>

<svg version="1.1" viewBox="0 0 16 16" xmlns="http://www.w3.org/2000/svg">
 <path d="m5.536 0c-0.73177 0-1.3133 0.017159-1.8086 0.10156-0.49532 0.084403-0.92522 0.24756-1.252 0.55859-0.65346 0.62207-0.75242 1.5679-0.85742 3.0547l-0.59961 8.5c-0.053411 0.7563-0.052035 1.3633 0.046875 1.8789s0.31591 0.957 0.67383 1.2637c0.71584 0.61333 1.7337 0.64258 3.1973 0.64258h6.1602c1.4635 0 2.4468-0.02955 3.1348-0.64648 0.34399-0.30847 0.54504-0.74174 0.65234-1.248 0.10731-0.5063 0.13669-1.1052 0.13281-1.8574v-0.01563l-0.60156-8.5195v-0.00195c-0.10835-1.3912-0.21262-2.3306-0.84961-2.9707-0.63698-0.6401-1.5935-0.74023-3.0684-0.74023zm0 1h4.9609c1.4172 0 2.0636 0.15 2.3594 0.44727s0.45476 0.9835 0.56055 2.3418l0.59766 8.4805c3e-3 0.71124-0.02976 1.2532-0.10938 1.6289-0.08039 0.37928-0.19072 0.57351-0.3418 0.70898-0.30216 0.27096-1.0381 0.39258-2.4668 0.39258h-6.1602c-1.4279 0-2.2243-0.12596-2.5469-0.40234-0.16129-0.13819-0.27094-0.32403-0.3418-0.69336s-0.081654-0.90542-0.03125-1.6191l0.59961-8.5c0.10263-1.4533 0.26768-2.1327 0.54883-2.4004 0.14057-0.13382 0.34615-0.23139 0.73047-0.29688 0.38432-0.065488 0.92669-0.087891 1.6406-0.087891z" fill="#808080"/>
 <path d="m5.4312 2.5242s-0.31612 2.9758 2.5287 2.9758c2.8449 0 2.5287-2.9758 2.5287-2.9758" enable-background="new" fill="none" stroke="#808080" stroke-linecap="round" stroke-linejoin="round"/>
 <g transform="translate(-.36607 -.14054)" fill="#808080">
  <circle transform="rotate(-25)" cx="3.7193" cy="11.82" r="1" enable-background="new"/>
  <circle transform="rotate(-25)" cx="4.264" cy="15.384" r="1" enable-background="new"/>
  <circle transform="rotate(-25)" cx=".6388" cy="13.693" r="1" enable-background="new"/>
 </g>
</svg>
